symbols/web/table_restaurant/materialsymbolsoutlined/table_restaurant_wght300gradN25_40px.svg

<svg xmlns="http://www.w3.org/2000/svg" height="40" width="40"><path d="M6.375 15.625h27.25l-1.792-6.25H8.25ZM20 12.5Zm8.625 5.083H11.417l-.625 4.459h18.416ZM7.417 32.458l2-14.875H5.542q-.667 0-1.063-.521-.396-.52-.187-1.187l2.166-7.542q.084-.416.438-.687.354-.271.812-.271h24.584q.5 0 .833.271.333.271.458.729l2.167 7.5q.167.667-.208 1.187-.375.521-1.084.521h-3.875l2 14.875h-1.958l-1.167-8.416H10.542l-1.167 8.416Z"/></svg>

<svg xmlns="http://www.w3.org/2000/svg" height="40" width="40"><path d="M6.375 15.625H33.625L31.833 9.375H8.25ZM20 12.5ZM28.625 17.583H11.417L10.792 22.042H29.208ZM7.417 32.458 9.417 17.583H5.542Q4.875 17.583 4.479 17.062Q4.083 16.542 4.292 15.875L6.458 8.333Q6.542 7.917 6.896 7.646Q7.25 7.375 7.708 7.375H32.292Q32.792 7.375 33.125 7.646Q33.458 7.917 33.583 8.375L35.75 15.875Q35.917 16.542 35.542 17.062Q35.167 17.583 34.458 17.583H30.583L32.583 32.458H30.625L29.458 24.042H10.542L9.375 32.458Z"/></svg>
